src/assets/InactiveSection.svg

<svg xmlns="http://www.w3.org/2000/svg" viewBox="0 -0.5 41 18" shape-rendering="crispEdges">
<!-- border -->
<!-- dark/outer -->
  <path stroke="#30485a" d="M1 0h39M0 1h1m39 0h1M0 2h1m39 0h1M0 3h1m39 0h1M0 4h1m39 0h1M0 5h1m39 0h1M0 6h1m39 0h1M0 7h1m39 0h1M0 8h1m39 0h1M0 9h1m39 0h1M0 10h1m39 0h1M0 11h1m39 0h1M0 12h1m39 0h1M0 13h1m39 0h1M0 14h1m39 0h1M0 15h1m39 0h1M0 16h1m39 0h1M1 17h3m33 0h3"/>
<!-- medium/ inner -->
  <path stroke="#4f7592" d="M1 1h1m37 0h1M3 2h35M2 3h2m33 0h2M2 4h1m35 0h1M2 5h1m35 0h1M2 6h1m35 0h1M2 7h1m35 0h1M2 8h1m35 0h1M2 9h1m35 0h1M2 10h1m35 0h1M2 11h1m35 0h1M2 12h1m35 0h1M2 13h1m35 0h1M2 14h1m35 0h1M1 15h3m33 0h3M2 16h1m35 0h1"/>
<!-- light/ middle -->
  <path stroke="#405f77" d="M2 1h37M1 2h2m35 0h2M1 3h1m37 0h1M1 4h1m37 0h1M1 5h1m37 0h1M1 6h1m37 0h1M1 7h1m37 0h1M1 8h1m37 0h1M1 9h1m37 0h1M1 10h1m37 0h1M1 11h1m37 0h1M1 12h1m37 0h1M1 13h1m37 0h1M1 14h1m37 0h1M1 16h1m1 0h1m33 0h1m1 0h1"/>
</svg>

<svg xmlns="http://www.w3.org/2000/svg" viewBox="0 -0.5 41 18" shape-rendering="crispEdges" preserveAspectRatio="none">
<metadata>Made with Pixels to Svg https://codepen.io/shshaw/pen/XbxvNj</metadata>
<!-- border -->
<!-- dark/back -->
<path stroke="#30485a" d="M1 0h39M0 1h1M40 1h1M0 2h1M40 2h1M0 3h1M40 3h1M0 4h1M40 4h1M0 5h1M40 5h1M0 6h1M40 6h1M0 7h1M40 7h1M0 8h1M40 8h1M0 9h1M40 9h1M0 10h1M40 10h1M0 11h1M40 11h1M0 12h1M40 12h1M0 13h1M40 13h1M0 14h1M40 14h1M0 15h1M40 15h1M0 16h1M40 16h1M1 17h3M37 17h3" />
<!-- medium/ front -->
<path stroke="#405c76" d="M1 1h1M39 1h1M3 2h35M2 3h2M37 3h2M2 4h1M38 4h1M2 5h1M38 5h1M2 6h1M38 6h1M2 7h1M38 7h1M2 8h1M38 8h1M2 9h1M38 9h1M2 10h1M38 10h1M2 11h1M38 11h1M2 12h1M38 12h1M2 13h1M38 13h1M2 14h1M38 14h1M1 15h3M37 15h3M2 16h1M38 16h1" />
<!-- light/ middle -->
<path stroke="#4f7092" d="M2 1h37M1 2h2M38 2h2M1 3h1M39 3h1M1 4h1M39 4h1M1 5h1M39 5h1M1 6h1M39 6h1M1 7h1M39 7h1M1 8h1M39 8h1M1 9h1M39 9h1M1 10h1M39 10h1M1 11h1M39 11h1M1 12h1M39 12h1M1 13h1M39 13h1M1 14h1M39 14h1M1 16h1M3 16h1M37 16h1M39 16h1" />
<!-- fill  purple: c5c0d8  a9c7c1-->
<path stroke="#a9c7c1" d="M4 3h33M3 4h35M3 5h35M3 6h35M3 7h35M3 8h35M3 9h35M3 10h35M3 11h35M3 12h35M3 13h35M3 14h35M4 15h33M4 16h33M4 17h33" />
</svg>
